!!!ONB: MCCC : IJH0417_01 : Extracted Monophonic Melody
!!!COM: Haydn, Joseph
!!!OPR: String Quartet in C major
!!!OMV: 1
!!!SCT: Hob.III:32 ; Op.20 No.2
!!!ODT: 1772///
**kern
*thru
*k[]
*C:
*clefG
*M4/4
8dd
=7
2gg
4.aa
16bb
16ccc
=8
8bb
8ddd
8ddd
8ddd
8.ddd
16bb
16ddd
16bb
16ddd
16bb
=9
8.ddd
16bb
16ddd
16bb
16ddd
16bb
8ccc
4bb
8aa
=10
4gg
4bb
4ccc
8ee
16ff#
32ee
32ff#
=11
4gg
8.bb
32aa
32bb
4ccc
24ee
24ff#
24gg
24ff#
24gg
24aa
=12
1gg
=13
1gg
=14
4gg
8.g
16g
4g
4r
=15
8r
8c
8e
8a
8f
8d
8g
8G
=16
8c
8r
4bb-
4aa
8.ff
32ee
32ff
=17
4ee
4bb-
4aa
8.ff
32ee
32ff
=18
16ee
16cc
16ee
16gg
16ccc
16gg
16eee
16ccc
16ggg
16eee
16ccc
16gg
16ccc
16gg
16ee
16cc
=19
8G
4ff
8ee
4.aa
32gg
32ff
32ee
32dd
=20
8cc#
8dd
8ee
8ff
4..cc
32dd
32cc
=21
4b
8r
8dd
8gg
8ff#
8ee
8dd
=22
6..cc[
48cc]
32dd
32ee
32ff#
32gg
32aa
32bb
8ccc
8aa
8ff#
8cc
=23
4b
4.ee
8cc#
8.dd
32ee
32ff#
=24
4gg
16ff#
16ee
16dd
16cc
16cc
16b
16a#
16b
8.b
32cc
32dd
=25
4.ee
8cc
8a
8ccc
8aa
8gg
=26
4gg
24ff#
24dd
24ee
24ff#
24ee
24dd
24aa
24dd
24ee
24ff#
24ee
24dd
24ccc
24dd
24ee
24ff#
24ee
24dd
=27
4.eee
16ddd
16ccc
8bb
8ggg
8eee
8ccc#
=28
4ccc#
4ddd
8r
4c
8B
=29
8r
8e
8r
8f#
4g
24r
24bb
24ccc
24ddd
24ccc
24bb
=30
4eee
24r
24aa
24bb
24ccc
24bb
24aa
4ddd
24r
24gg
24aa
24bb
24aa
24gg
=31
4ccc
24r
24aa
24bb
24ccc
24bb
24aa
24bb
24dd
24dd
24ddd
24dd
24dd
24ccc
24dd
24dd
24bb
24dd
24dd
=32
24aa
24dd
24dd
24ddd
24dd
24dd
24ccc
24dd
24dd
24bb
24dd
24dd
24aa
24dd
24dd
24ddd
24dd
24dd
24ccc
24dd
24dd
24bb
24dd
24dd
=33
4aa
8r
8d
8e
8ee
8dd
8cc
=34
4.b
8cc
8dd
8ddd
8ccc
8bb
=35
4.aa
8bb
8ccc
8ddd
8eee
16ddd
16ccc
=36
8bb
8ggg
8eee
8ccc#
4ccc#
4ddd
=37
16d
16f#
16a
16cc
16dd
16ff#
16aa
16ccc
8ccc
8aa
8ff#
8ee-
=38
4ee-
4dd
2dd
=39
1dd
=40
8.ee-
16dd
16ee-
16dd
16ee-
16dd
8ee-
8gg
8bb-
8gg
=41
8.ee-
16dd
16ee-
16dd
16ee-
16dd
8ee-
8bb-
8gg
8ee-
=42
8cc#
4cc#
4cc#
4cc#
8cc#
=43
4.dd
16ee
16cc
4b
8r
8a
=44
4g
8r
8cc
4b
8r
16gg
16ee
=45
4.dd
16ee
16cc
4b
8r
8a
=46
4g
8r
8cc
4b
8r
8ccc
=47
4bb
8r
8cc
4b
4r
=48
1r
=49
4.a
16cc#
16ee
8aa
8ccc#
8eee
8ggg
=50
4fff
2.r
=51
4.dd
16ff#
16aa
8ddd
8aa
8fff#
8eee
=52
4ddd#
2.r
=53
4.ee
16gg
16bb
8eee
8bb
8ggg
8fff
=54
4eee
2.r
=55
4.cc
16ee
16gg
8ccc
8gg
8eee
8ddd
=56
4ccc#
2.r
=57
4.dd
16ff
16aa
8ddd
8aa
8fff
8eee-
=58
4ddd
2.r
=59
4.dd
16ff
16dd
8bb
8ddd
8fff
8G#
=60
4.A
16c#
16e
4a
4r
=61
4r
2dd
4cc#
=62
8dd
8d
8f
8A
8B-
8G
8c
8cc
=63
2aa
4.bb
16ccc
16ddd
=64
8ccc
8eee
8eee
8eee
8.eee
16ccc
16eee
16ccc
16eee
16ccc
=65
8.eee
16ccc#
16eee
16ccc#
16eee
16ccc#
8eee
8ccc#
8aa#
8gg
=66
8.ee
16dd#
16ee
16dd#
16ee
16dd#
8ee
8ee
8ee
8ee
=67
1ee
=68
1dd#
=69
1ee
=70
1ff#
=71
2ee
4e
8r
8e
=72
8f
8ff
8ee
8dd
4.cc
8dd
=73
8ee
8ccc
8bb
8aa
8gg#
8ddd
8ccc
8bb
=74
4.eee
16ccc
16aa
4bb-
8r
8gg#
=75
4aa
8r
16aa
16ff
4.ee
16ff
16dd
=76
4cc
8r
8b
4a
8r
8ff
=77
4ee
8r
8dd
8.cc
16b
16cc
16b
16cc
16b
=78
4cc
4cc#
8.dd
16cc#
16dd
16cc#
16dd
16cc#
=79
8dd
8ee
8ff
8ff#
8gg
8ff
8ee
8aa
=80
4.cc
16dd
16cc
4b
4r
=81
1r
=82
3..r
24r
8gg
8gg
8gg
=83
8.gg
16ee
16gg
16ee
16gg
16ee
2bb-[
=84
16bb-]
16gg
16ee
16cc
16b-
16g
16e
16B-
8A
8aa
8ff
8dd
=85
4cc
24b
24g
24a
24b
24a
24g
24dd
24g
24a
24b
24a
24g
24ff
24g
24a
24b
24a
24g
=86
4.ddd
8ff
8ee
8ccc
8aa
8ff#
=87
4ff#
4gg
8r
4f
8e
=88
8r
8a
8r
8B
4c
24r
24ee
24ff
24gg
24ff
24ee
=89
4aa
24r
24dd
24ee
24ff
24ee
24dd
4gg
24r
24cc
24dd
24ee
24dd
24cc
=90
4ff
24r
24dd
24ee
24ff
24ee
24dd
24ee
24g
24g
24gg
24g
24g
24ff
24g
24g
24ee
24g
24g
=91
24dd
24g
24g
24gg
24g
24g
24ff
24g
24g
24ee
24g
24g
24dd
24g
24g
24gg
24g
24g
24ff
24g
24g
24ee
24g
24g
=92
4dd
8r
8G
8A
8a
8g
8f
=93
4.e
8f
8g
8gg
8ff
8ee
=94
4.dd
8ee
8ff
8gg
8aa
16gg
16ff
=95
8ee
8ccc
8aa
8ff#
4ff#
4gg
=96
4.ff
8ee-
8dd
8cc
8b
16cc
16dd
=97
4a-
4g
2g
=98
1g
=99
8.a-
16g
16a-
16g
16a-
16g
8a-
8cc
8ee-
8cc
=100
8.a-
16g
16a-
16g
16a-
16g
8a-
8ee-
8cc
8a-
=101
8f#
4f#
4f#
4f#
8f#
=102
4.g
16a
16f
4e
8r
8d
=103
4c
8r
8f
4e
8r
16cc
16a
=104
4.g
16a
16f
4e
8r
8d
=105
4c
8r
8f
8e
8a
8g
8ff
=106
8ee
8dd
8cc
8f
4e
4r
==
*-
